style-guide/assets/xd-icons-paragraph.svg

<?xml version="1.0" encoding="UTF-8"?>
<svg width="24px" height="24px" viewBox="0 0 24 24" version="1.1" xmlns="http://www.w3.org/2000/svg" xmlns:xlink="http://www.w3.org/1999/xlink">
    <!-- Generator: Sketch 51.3 (57544) - http://www.bohemiancoding.com/sketch -->
    <title>paragraph</title>
    <desc>Created with Sketch.</desc>
    <defs></defs>
    <g id="paragraph" stroke="none" stroke-width="1" fill="none" fill-rule="evenodd">
        <path d="M7.5,12 C4.46271525,12 2,9.53728475 2,6.5 C2,3.46271525 4.46271525,1 7.5,1 L12,1 C12.5522847,1 13,1.44771525 13,2 L13,11 C13,11.5522847 12.5522847,12 12,12 L7.5,12 Z M11,3 L7.5,3 C5.56728475,3 4,4.56728475 4,6.5 C4,8.43271525 5.56728475,10 7.5,10 L11,10 L11,3 Z M11,3 C9.66666667,3 9.66666667,1 11,1 L22,1 C23.3333333,1 23.3333333,3 22,3 L19,3 L19,22 C19,23.3333333 17,23.3333333 17,22 L17,3 L13,3 L13,22 C13,23.3333333 11,23.3333333 11,22 L11,3 Z" id="Stroke-3" fill="#000000" fill-rule="nonzero"></path>
    </g>
</svg>

<svg viewBox="0 0 24 24" xmlns="http://www.w3.org/2000/svg">
  <path d="M7.5 12a5.5 5.5 0 0 1 0-11H12a1 1 0 0 1 1 1v9a1 1 0 0 1-1 1H7.5zM11 3H7.5a3.5 3.5 0 0 0 0 7H11V3zm0 0c-1.333 0-1.333-2 0-2h11c1.333 0 1.333 2 0 2h-3v19c0 1.333-2 1.333-2 0V3h-4v19c0 1.333-2 1.333-2 0V3z" fill="#000" fill-rule="nonzero"/>
</svg>
